X: 1
T:Jig
R:Jig
O:Scotland
M:6/8
L:1/8
K:Hp
fe|d2A A2A|BGB Afe|d2A A2A|g2f eAe|!
d2A A2A|BGB A3|faf gfe|1 d3 d:|2 d3 d3 !
|:faa baa|faa baa|faa faa|e2e gfe|!
faa baa|faa baa|faa eff|d3 d3:|!
